proprietary/assets/icons/natuur-en-milieu/net-boven-vis.svg

<svg enable-background="new 0 0 64 64" viewBox="0 0 64 64" xmlns="http://www.w3.org/2000/svg"><path d="m0 0h64v64h-64z" fill="none"/><path d="m35.3 43.9c1.2 1.5 3.4 1.7 4.9.5s1.7-3.4.5-4.9c-.6-.7-1.5-1.2-2.3-1.3-.5-2.1-.8-4.6.1-5.9.8-1.2 3.6-1.3 6.3-.9.1.5.3 1 .7 1.4 1.2 1.5 3.4 1.7 4.9.5s1.7-3.4.5-4.9c-.9-1.1-2.2-1.5-3.5-1.2-1.4-2-2.4-4.2-1.7-5.3.8-1.1 3.5-1.6 6.1-1.7.1.4.3.8.6 1.1 1.2 1.5 3.4 1.7 4.9.5s1.7-3.4.5-4.9c-1-1.2-2.6-1.6-4-1-26.5-19-39.7-12.8-44.2-9.1-4.5 3.6-13.3 15.2-.3 45.1-1.2 1.3-1.3 3.2-.2 4.6 1.2 1.5 3.4 1.7 4.9.5s1.7-3.4.5-4.9c-.2-.3-.5-.5-.7-.6.6-2.7 1.7-5.6 3.1-6.2 1.2-.5 3.2.9 4.8 2.7-.5 1.2-.4 2.6.5 3.6 1.2 1.5 3.4 1.7 4.9.5s1.7-3.4.5-4.9c-.3-.4-.8-.7-1.2-.9.2-2.7.9-5.4 2.2-5.9 1.5-.6 4 .2 5.9 1.2 0 .8.2 1.6.8 2.3zm-7.9-6.3c-1.2.5-2.1 1.6-2.7 2.8-.2 0-.4 0-.6 0-1.2-.1-2.4-.3-3.5-.5.9-1.7 1.6-3.5 2.3-5.3.6.1 1.2.2 1.8.2 1.3.1 2.7.2 4 .2-.3.8-.6 1.6-.9 2.4-.1.1-.2.1-.4.2zm-21.5-18.5c.9.7 1.8 1.4 2.8 2.1-.3 2-.7 3.9-1.3 5.8-.6-.4-1.2-.8-1.8-1.2-.2-2.3 0-4.6.3-6.7zm2.9-7.2c.3 2.3.3 4.7.1 7-.9-.6-1.7-1.3-2.5-2 .6-1.8 1.3-3.5 2.4-5zm2.2 1.5c1.8 1.4 3.7 2.6 5.7 3.5 0 1.2-.1 2.4-.2 3.6-.1.8-.2 1.5-.3 2.3-1.8-.7-3.6-1.6-5.3-2.7 0-.1 0-.1 0-.2.2-2.1.2-4.3.1-6.5zm28.2-2.8c.1 1.8.2 3.5.2 5.3-1.8.7-3.7 1.2-5.6 1.6 0-1.9 0-3.8-.1-5.7 1.6-.3 3.2-.8 4.7-1.6.3.2.5.3.8.4zm-3.2 20c-.4.6-.7 1.3-.9 2-1.2.2-2.5.3-3.7.4.5-1.9 1-3.8 1.4-5.7 2-.2 3.9-.5 5.9-1-.1.9-.3 1.8-.5 2.7-.9.3-1.7.9-2.2 1.6zm-10.3-5.3c-.1 0-.2 0-.3 0 .3-1.8.6-3.7.7-5.6 1.1.1 2.2.2 3.3.2.8 0 1.6 0 2.4-.1-.1.8-.1 1.6-.2 2.4-.1 1.1-.3 2.2-.4 3.2-1.9.1-3.7.1-5.5-.1zm5 2.1c-.4 1.9-.8 3.8-1.4 5.6-1.5 0-3-.1-4.4-.2-.4 0-.9-.1-1.3-.2.6-1.8 1.1-3.6 1.5-5.4.1 0 .3 0 .4.1 1.3.1 2.6.2 3.9.2.5 0 .9 0 1.3-.1zm-4.6-15.4c1.1.2 2.2.3 3.3.3.8 0 1.6-.1 2.3-.1.1 1.9.2 3.7.1 5.6-1.8.2-3.5.1-5.3 0-.1 0-.2 0-.3 0 .1-2 0-3.9-.1-5.8zm7.1 13.3c.1-.9.3-1.9.4-2.8.1-1 .2-1.9.2-2.9 1.9-.3 3.8-.8 5.6-1.4 0 1.6-.1 3.3-.3 4.9 0 .4-.1.8-.1 1.1-2 .5-3.9.8-5.8 1.1zm.3-15.5c-.1-.6-.1-1.1-.2-1.7.9.3 1.7.7 2.6 1-.8.3-1.6.5-2.4.7zm-2 .3c-1.9.2-3.8.1-5.7-.2-.2-1.3-.4-2.6-.6-3.9 2 .3 4 .7 6 1.4.1.9.2 1.8.3 2.7zm-7.3 7.3c-1.9-.4-3.8-.9-5.6-1.7 0-2.2-.2-4.4-.5-6.5 1.9 1.1 3.9 1.9 5.9 2.4.2 1.9.3 3.9.2 5.8zm-5.6.4c1.8.7 3.6 1.2 5.5 1.5-.1 1.9-.4 3.7-.7 5.6-1.9-.3-3.7-.8-5.4-1.4.3-1.8.5-3.7.6-5.7zm4.5 9.1c-.4 1.8-.9 3.6-1.5 5.4-1.9-.3-3.7-.8-5.4-1.4.6-1.8 1.1-3.6 1.5-5.4 1.7.7 3.5 1.1 5.4 1.4zm-7.3-2c-.4 1.8-.9 3.7-1.5 5.4-1.8-.7-3.5-1.4-5.1-2.3.6-1.8 1.1-3.7 1.4-5.6 1.6.9 3.4 1.8 5.2 2.5zm-9.1 4c-.2.5-.5 1.1-.7 1.6-.1-.7-.2-1.5-.3-2.2.4.2.7.4 1 .6zm.2 6.5c-.1-.5-.2-1-.3-1.6.7-1.3 1.3-2.6 1.9-3.9 1.6.9 3.4 1.6 5.1 2.3-.7 1.7-1.5 3.4-2.4 5-1.5-.5-2.9-1.2-4.3-1.8zm3.2 3.6c-.5.8-1 1.5-1.5 2.2-.3-1.1-.7-2.2-1-3.3.8.4 1.6.7 2.5 1.1zm5.3-6.2c1.8.6 3.6 1 5.4 1.4-.7 1.8-1.5 3.5-2.3 5.2-1.9-.4-3.7-.9-5.5-1.5.9-1.6 1.7-3.3 2.4-5.1zm15.4 2.2c1.4 0 2.7-.2 4.1-.3 0 1.3.2 2.7.5 3.9-1.6-.7-3.5-1.4-5.3-1.4.2-.8.5-1.5.7-2.2zm9.5-6.6c.2-.9.3-1.8.5-2.7.7-.2 1.4-.5 2.1-.8.4 1.2 1 2.4 1.7 3.4-1.4-.1-2.9-.1-4.3.1zm3-8.2c-.6.8-.8 1.8-.8 2.7-.5.2-1 .4-1.4.6 0-.1 0-.2 0-.3.2-2 .3-4 .3-5.9 1.7-.7 3.3-1.7 4.8-2.8.3.2.5.3.7.5v2.9c-1.5.4-2.8 1.1-3.6 2.3zm-2-8.5c1.1.6 2.1 1.1 3.1 1.7-.9.6-1.9 1.2-2.9 1.7-.1-1.2-.2-2.3-.2-3.4zm7.6 5.7c0-.4 0-.8 0-1.2.5.4 1.1.7 1.5 1-.4.1-.9.2-1.5.2zm-25.8-11.6c.3 1.2.5 2.4.7 3.7-2.2-.6-4.3-1.7-6.2-3.1 0-.1 0-.1 0-.2 1.4-.3 2.8-.4 4.2-.4zm-8 1.2c.2.2.5.4.7.6.5 2.4.8 4.8.8 7.2-2.2-1.1-4.2-2.5-6-4.2 0-.2-.1-.4-.1-.6.3-.3.6-.6.9-.8 1.2-1 2.4-1.7 3.7-2.2zm-3.7 42c-.2-.6-.5-1.1-.7-1.8.4.1.8.2 1.2.4-.2.5-.4.9-.5 1.4zm1.2-3.2c-1-.3-1.9-.6-2.9-.9-.2-.4-.3-.9-.5-1.3 1-1.2 1.9-2.5 2.7-3.8 1.8.6 3.7 1.2 5.6 1.6-.2.3-.4.6-.6.9-.4 0-.8.1-1.3.3-1.2.5-2.2 1.7-3 3.2zm6.5-3.3c.1-.3.3-.5.5-.8 1.4.3 2.9.5 4.3.6h.1c-.3 1-.5 2.1-.6 3.1-1.2-1.2-2.7-2.4-4.3-2.9z"/><path d="m55 47.7c-.5-.9-1.9-3.3-3.2-3.5-1.5-.2-5.2-.2-7.3.5-.2.1-.4.4-.3.6 0 .1.8 2 1.2 2.8-3 1-4.7 2.4-6.4 2.4-2.4 0-4-2.1-5.9-3.3-.4-.2-.8.1-.8.5.1 2.9 3.1 5.2 3.1 5.9s-3 2.8-3 5.8c0 .4.4.7.8.5 1.9-1.2 3.4-3.1 5.9-3 1.6 0 3 .9 5.3 1.8 0 0-1.8 1.5-2.1 1.8s-.2.7.1.8 1.9.8 3.8.3c.9-.2 1.8-.7 2.7-1.7.8.1 4 .5 7.7-.9 3.3-1.2 5.9-3.4 5.9-5.3.1-2.3-3.3-4.9-7.5-6zm.5 6.4c-.8 0-1.6-.8-1.6-1.6s.8-1.6 1.6-1.6 1.6.8 1.6 1.6c0 .9-.8 1.6-1.6 1.6z"/></svg>

<?xml version="1.0" encoding="utf-8"?>
<!-- Generator: Adobe Illustrator 24.1.3, SVG Export Plug-In . SVG Version: 6.00 Build 0)  -->
<svg version="1.1" xmlns="http://www.w3.org/2000/svg" xmlns:xlink="http://www.w3.org/1999/xlink" x="0px" y="0px"
	 viewBox="0 0 64 64" style="enable-background:new 0 0 64 64;" xml:space="preserve">
<style type="text/css">
	.st0{fill:none;}
</style>
<g id="Box">
	<rect class="st0" width="64" height="64"/>
</g>
<g id="Icon">
	<g>
		<path d="M35.3,43.9c1.2,1.5,3.4,1.7,4.9,0.5s1.7-3.4,0.5-4.9c-0.6-0.7-1.5-1.2-2.3-1.3c-0.5-2.1-0.8-4.6,0.1-5.9
			c0.8-1.2,3.6-1.3,6.3-0.9c0.1,0.5,0.3,1,0.7,1.4c1.2,1.5,3.4,1.7,4.9,0.5s1.7-3.4,0.5-4.9c-0.9-1.1-2.2-1.5-3.5-1.2
			c-1.4-2-2.4-4.2-1.7-5.3c0.8-1.1,3.5-1.6,6.1-1.7c0.1,0.4,0.3,0.8,0.6,1.1c1.2,1.5,3.4,1.7,4.9,0.5c1.5-1.2,1.7-3.4,0.5-4.9
			c-1-1.2-2.6-1.6-4-1C27.3-3.1,14.1,3.1,9.6,6.8C5.1,10.4-3.7,22,9.3,51.9c-1.2,1.3-1.3,3.2-0.2,4.6c1.2,1.5,3.4,1.7,4.9,0.5
			c1.5-1.2,1.7-3.4,0.5-4.9c-0.2-0.3-0.5-0.5-0.7-0.6c0.6-2.7,1.7-5.6,3.1-6.2c1.2-0.5,3.2,0.9,4.8,2.7c-0.5,1.2-0.4,2.6,0.5,3.6
			c1.2,1.5,3.4,1.7,4.9,0.5c1.5-1.2,1.7-3.4,0.5-4.9c-0.3-0.4-0.8-0.7-1.2-0.9c0.2-2.7,0.9-5.4,2.2-5.9c1.5-0.6,4,0.2,5.9,1.2
			C34.5,42.4,34.7,43.2,35.3,43.9z M27.4,37.6c-1.2,0.5-2.1,1.6-2.7,2.8c-0.2,0-0.4,0-0.6,0c-1.2-0.1-2.4-0.3-3.5-0.5
			c0.9-1.7,1.6-3.5,2.3-5.3c0.6,0.1,1.2,0.2,1.8,0.2c1.3,0.1,2.7,0.2,4,0.2c-0.3,0.8-0.6,1.6-0.9,2.4C27.7,37.5,27.6,37.5,27.4,37.6
			z M5.9,19.1c0.9,0.7,1.8,1.4,2.8,2.1c-0.3,2-0.7,3.9-1.3,5.8c-0.6-0.4-1.2-0.8-1.8-1.2C5.4,23.5,5.6,21.2,5.9,19.1z M8.8,11.9
			c0.3,2.3,0.3,4.7,0.1,7c-0.9-0.6-1.7-1.3-2.5-2C7,15.1,7.7,13.4,8.8,11.9z M11,13.4c1.8,1.4,3.7,2.6,5.7,3.5
			c0,1.2-0.1,2.4-0.2,3.6c-0.1,0.8-0.2,1.5-0.3,2.3c-1.8-0.7-3.6-1.6-5.3-2.7c0-0.1,0-0.1,0-0.2C11.1,17.8,11.1,15.6,11,13.4z
			 M39.2,10.6c0.1,1.8,0.2,3.5,0.2,5.3c-1.8,0.7-3.7,1.2-5.6,1.6c0-1.9,0-3.8-0.1-5.7c1.6-0.3,3.2-0.8,4.7-1.6
			C38.7,10.4,38.9,10.5,39.2,10.6z M36,30.6c-0.4,0.6-0.7,1.3-0.9,2c-1.2,0.2-2.5,0.3-3.7,0.4c0.5-1.9,1-3.8,1.4-5.7
			c2-0.2,3.9-0.5,5.9-1c-0.1,0.9-0.3,1.8-0.5,2.7C37.3,29.3,36.5,29.9,36,30.6z M25.7,25.3c-0.1,0-0.2,0-0.3,0
			c0.3-1.8,0.6-3.7,0.7-5.6c1.1,0.1,2.2,0.2,3.3,0.2c0.8,0,1.6,0,2.4-0.1c-0.1,0.8-0.1,1.6-0.2,2.4c-0.1,1.1-0.3,2.2-0.4,3.2
			C29.3,25.5,27.5,25.5,25.7,25.3z M30.7,27.4c-0.4,1.9-0.8,3.8-1.4,5.6c-1.5,0-3-0.1-4.4-0.2c-0.4,0-0.9-0.1-1.3-0.2
			c0.6-1.8,1.1-3.6,1.5-5.4c0.1,0,0.3,0,0.4,0.1c1.3,0.1,2.6,0.2,3.9,0.2C29.9,27.5,30.3,27.5,30.7,27.4z M26.1,12
			c1.1,0.2,2.2,0.3,3.3,0.3c0.8,0,1.6-0.1,2.3-0.1c0.1,1.9,0.2,3.7,0.1,5.6c-1.8,0.2-3.5,0.1-5.3,0c-0.1,0-0.2,0-0.3,0
			C26.3,15.8,26.2,13.9,26.1,12z M33.2,25.3c0.1-0.9,0.3-1.9,0.4-2.8c0.1-1,0.2-1.9,0.2-2.9c1.9-0.3,3.8-0.8,5.6-1.4
			c0,1.6-0.1,3.3-0.3,4.9c0,0.4-0.1,0.8-0.1,1.1C37,24.7,35.1,25,33.2,25.3z M33.5,9.8c-0.1-0.6-0.1-1.1-0.2-1.7
			c0.9,0.3,1.7,0.7,2.6,1C35.1,9.4,34.3,9.6,33.5,9.8z M31.5,10.1c-1.9,0.2-3.8,0.1-5.7-0.2c-0.2-1.3-0.4-2.6-0.6-3.9
			c2,0.3,4,0.7,6,1.4C31.3,8.3,31.4,9.2,31.5,10.1z M24.2,17.4c-1.9-0.4-3.8-0.9-5.6-1.7c0-2.2-0.2-4.4-0.5-6.5
			c1.9,1.1,3.9,1.9,5.9,2.4C24.2,13.5,24.3,15.5,24.2,17.4z M18.6,17.8c1.8,0.7,3.6,1.2,5.5,1.5c-0.1,1.9-0.4,3.7-0.7,5.6
			c-1.9-0.3-3.7-0.8-5.4-1.4C18.3,21.7,18.5,19.8,18.6,17.8z M23.1,26.9c-0.4,1.8-0.9,3.6-1.5,5.4c-1.9-0.3-3.7-0.8-5.4-1.4
			c0.6-1.8,1.1-3.6,1.5-5.4C19.4,26.2,21.2,26.6,23.1,26.9z M15.8,24.9c-0.4,1.8-0.9,3.7-1.5,5.4c-1.8-0.7-3.5-1.4-5.1-2.3
			c0.6-1.8,1.1-3.7,1.4-5.6C12.2,23.3,14,24.2,15.8,24.9z M6.7,28.9C6.5,29.4,6.2,30,6,30.5c-0.1-0.7-0.2-1.5-0.3-2.2
			C6.1,28.5,6.4,28.7,6.7,28.9z M6.9,35.4c-0.1-0.5-0.2-1-0.3-1.6c0.7-1.3,1.3-2.6,1.9-3.9c1.6,0.9,3.4,1.6,5.1,2.3
			c-0.7,1.7-1.5,3.4-2.4,5C9.7,36.7,8.3,36,6.9,35.4z M10.1,39c-0.5,0.8-1,1.5-1.5,2.2c-0.3-1.1-0.7-2.2-1-3.3
			C8.4,38.3,9.2,38.6,10.1,39z M15.4,32.8c1.8,0.6,3.6,1,5.4,1.4c-0.7,1.8-1.5,3.5-2.3,5.2c-1.9-0.4-3.7-0.9-5.5-1.5
			C13.9,36.3,14.7,34.6,15.4,32.8z M30.8,35c1.4,0,2.7-0.2,4.1-0.3c0,1.3,0.2,2.7,0.5,3.9c-1.6-0.7-3.5-1.4-5.3-1.4
			C30.3,36.4,30.6,35.7,30.8,35z M40.3,28.4c0.2-0.9,0.3-1.8,0.5-2.7c0.7-0.2,1.4-0.5,2.1-0.8c0.4,1.2,1,2.4,1.7,3.4
			C43.2,28.2,41.7,28.2,40.3,28.4z M43.3,20.2c-0.6,0.8-0.8,1.8-0.8,2.7c-0.5,0.2-1,0.4-1.4,0.6c0-0.1,0-0.2,0-0.3
			c0.2-2,0.3-4,0.3-5.9c1.7-0.7,3.3-1.7,4.8-2.8c0.3,0.2,0.5,0.3,0.7,0.5c0,1,0,2,0,2.9C45.4,18.3,44.1,19,43.3,20.2z M41.3,11.7
			c1.1,0.6,2.1,1.1,3.1,1.7c-0.9,0.6-1.9,1.2-2.9,1.7C41.4,13.9,41.3,12.8,41.3,11.7z M48.9,17.4c0-0.4,0-0.8,0-1.2
			c0.5,0.4,1.1,0.7,1.5,1C50,17.3,49.5,17.4,48.9,17.4z M23.1,5.8c0.3,1.2,0.5,2.4,0.7,3.7c-2.2-0.6-4.3-1.7-6.2-3.1
			c0-0.1,0-0.1,0-0.2c1.4-0.3,2.8-0.4,4.2-0.4C22.2,5.8,22.7,5.8,23.1,5.8z M15.1,7c0.2,0.2,0.5,0.4,0.7,0.6
			c0.5,2.4,0.8,4.8,0.8,7.2c-2.2-1.1-4.2-2.5-6-4.2c0-0.2-0.1-0.4-0.1-0.6c0.3-0.3,0.6-0.6,0.9-0.8C12.6,8.2,13.8,7.5,15.1,7z
			 M11.4,49c-0.2-0.6-0.5-1.1-0.7-1.8c0.4,0.1,0.8,0.2,1.2,0.4C11.7,48.1,11.5,48.5,11.4,49z M12.6,45.8c-1-0.3-1.9-0.6-2.9-0.9
			c-0.2-0.4-0.3-0.9-0.5-1.3c1-1.2,1.9-2.5,2.7-3.8c1.8,0.6,3.7,1.2,5.6,1.6c-0.2,0.3-0.4,0.6-0.6,0.9c-0.4,0-0.8,0.1-1.3,0.3
			C14.4,43.1,13.4,44.3,12.6,45.8z M19.1,42.5c0.1-0.3,0.3-0.5,0.5-0.8c1.4,0.3,2.9,0.5,4.3,0.6c0,0,0.1,0,0.1,0
			c-0.3,1-0.5,2.1-0.6,3.1C22.2,44.2,20.7,43,19.1,42.5z"/>
		<path d="M55,47.7c-0.5-0.9-1.9-3.3-3.2-3.5c-1.5-0.2-5.2-0.2-7.3,0.5c-0.2,0.1-0.4,0.4-0.3,0.6c0,0.1,0.8,2,1.2,2.8
			c-3,1-4.7,2.4-6.4,2.4c-2.4,0-4-2.1-5.9-3.3c-0.4-0.2-0.8,0.1-0.8,0.5c0.1,2.9,3.1,5.2,3.1,5.9s-3,2.8-3,5.8
			c0,0.4,0.4,0.7,0.8,0.5c1.9-1.2,3.4-3.1,5.9-3c1.6,0,3,0.9,5.3,1.8c0,0-1.8,1.5-2.1,1.8c-0.3,0.3-0.2,0.7,0.1,0.8
			c0.3,0.1,1.9,0.8,3.8,0.3c0.9-0.2,1.8-0.7,2.7-1.7c0.8,0.1,4,0.5,7.7-0.9c3.3-1.2,5.9-3.4,5.9-5.3C62.6,51.4,59.2,48.8,55,47.7z
			 M55.5,54.1c-0.8,0-1.6-0.8-1.6-1.6c0-0.8,0.8-1.6,1.6-1.6c0.8,0,1.6,0.8,1.6,1.6C57.1,53.4,56.3,54.1,55.5,54.1z"/>
	</g>
</g>
</svg>
